assets/images/icons/cq-challenge-icon-4.svg

<svg width="65" height="64" viewBox="0 0 65 64" fill="none" xmlns="http://www.w3.org/2000/svg">
<path d="M31.9659 63.9175C16.3034 63.8109 3.23122 52.7679 0.469969 37.2582C-1.93129 23.7758 5.05127 9.76441 17.2527 3.5883C33.4119 -4.59087 52.4772 1.65361 60.6041 17.835C63.5262 23.6551 64.4493 29.8433 63.5926 36.2929C63.4578 37.3025 62.8203 37.8415 62.0098 37.7127C61.1873 37.582 60.7448 36.8781 60.8675 35.8927C62.4442 23.094 56.1052 11.2747 44.6419 5.64164C29.7235 -1.68683 11.2415 5.37416 4.98289 20.7953C-1.04439 35.6494 5.68477 52.2651 20.3699 58.7067C25.3132 60.8747 30.4857 61.5685 35.8413 60.8525C36.8851 60.7138 37.601 61.1341 37.7358 61.9808C37.8665 62.8134 37.3134 63.4107 36.2455 63.5856C36.0967 63.6098 35.9479 63.644 35.7991 63.654C34.52 63.7445 33.243 63.831 31.9659 63.9175Z" fill="#90C23F"/>
<path d="M31.3681 5.11657C45.3473 5.13266 56.7181 15.0253 58.524 28.2463C58.6769 29.3625 58.7111 30.4987 58.7573 31.627C58.7996 32.6426 58.2726 33.2801 57.4441 33.3083C56.6075 33.3364 56.0303 32.6768 56.0122 31.635C55.9217 26.1165 54.2323 21.127 50.7028 16.8976C44.6896 9.69184 36.9187 6.5706 27.6817 8.32429C17.417 10.273 10.9312 16.6583 8.47564 26.8104C5.53943 38.9635 13.2259 51.6857 25.3146 55.0644C27.4303 55.6557 29.5822 55.9734 31.7824 55.9996C32.9428 56.0136 33.6245 56.9448 33.2183 57.9021C32.9468 58.5416 32.4239 58.7508 31.7602 58.7488C27.6194 58.7266 23.6414 57.886 20.0073 55.9191C9.74264 50.3644 4.69275 41.6905 5.2257 30.0181C5.70635 19.5161 13.1736 9.97339 23.1728 6.59071C26.0286 5.62136 28.9527 5.10048 31.3681 5.11657Z" fill="#90C23F"/>
<path d="M35.0117 49.528C34.9957 41.4896 41.4674 34.9958 49.5018 34.9898C57.5422 34.9837 64.024 41.4595 64.024 49.4959C64.022 57.4981 57.5723 63.9718 49.5722 64C41.5378 64.0261 35.0278 57.5564 35.0117 49.528ZM49.536 37.7309C43.0562 37.7249 37.769 42.9839 37.7549 49.4516C37.7408 55.9314 42.9979 61.2327 49.4575 61.2548C55.9655 61.2769 61.2808 55.9877 61.2788 49.4918C61.2788 43.0161 56.0077 37.7369 49.536 37.7309Z" fill="#90C23F"/>
<path d="M33.3475 24.0914C33.3475 25.3483 33.3194 26.6053 33.3696 27.8602C33.3797 28.1357 33.5989 28.5078 33.8342 28.6566C35.4572 29.6863 36.1389 31.5707 35.4612 33.3043C34.7895 35.0238 32.9714 36.0092 31.1192 35.5809C30.6205 35.4662 30.3449 35.5748 30.0151 35.9107C28.3238 37.6302 26.6103 39.3275 24.9029 41.033C24.744 41.1918 24.5871 41.3608 24.4102 41.4995C23.8269 41.9581 23.0587 41.9199 22.564 41.4191C22.0753 40.9244 22.021 40.128 22.5016 39.5709C22.926 39.0762 23.4086 38.6317 23.8712 38.1692C25.2729 36.7634 26.6727 35.3556 28.0865 33.9619C28.3761 33.6763 28.5108 33.441 28.3761 32.9906C27.8693 31.2831 28.5269 29.6099 30.0553 28.7129C30.4696 28.4696 30.5863 28.2102 30.5822 27.7637C30.5641 25.4509 30.5742 23.1402 30.5742 20.8274C30.5742 20.6021 30.5641 20.3749 30.5822 20.1496C30.6486 19.2788 31.1675 18.7378 31.9357 18.7258C32.7341 18.7137 33.3194 19.2768 33.3415 20.1738C33.3737 21.479 33.3495 22.7862 33.3495 24.0934C33.3455 24.0914 33.3475 24.0914 33.3475 24.0914ZM31.9216 32.9182C32.4928 32.9363 32.9473 32.5139 32.9372 31.9448C32.9272 31.3535 32.6074 31.0076 32.0222 30.9473C31.4651 30.8889 30.9905 31.3233 30.9623 31.8804C30.9362 32.4455 31.3565 32.9001 31.9216 32.9182Z" fill="#90C23F"/>
<path d="M20.8618 44.4986C20.6708 44.9351 20.6105 45.2528 20.4254 45.46C19.9106 46.0351 19.3676 46.5962 18.7884 47.105C18.2675 47.5636 17.4973 47.5012 17.0086 47.0467C16.5018 46.5741 16.4052 45.7596 16.8738 45.2146C17.3766 44.6294 17.8955 44.018 18.5269 43.5977C18.891 43.3563 19.5506 43.3121 19.9669 43.469C20.347 43.6097 20.5763 44.1467 20.8618 44.4986Z" fill="#90C23F"/>
<path d="M50.9346 30.5171C51.3227 30.5452 51.727 30.5352 52.1171 30.6096C52.7928 30.7383 53.1488 31.1928 53.1971 31.8686C53.2453 32.5282 52.8391 33.1597 52.1694 33.2321C51.3087 33.3246 50.4218 33.3246 49.563 33.2261C48.8913 33.1476 48.5655 32.5966 48.5474 31.9249C48.5293 31.2713 48.9778 30.7242 49.6515 30.6076C50.0678 30.5332 50.4982 30.5452 50.9346 30.5171Z" fill="#90C23F"/>
<path d="M33.3659 50.8412C33.3458 51.2394 33.3659 51.6456 33.2996 52.0378C33.1789 52.7477 32.6138 53.1962 31.932 53.1841C31.2503 53.1721 30.6831 52.7075 30.6168 51.9875C30.5504 51.2675 30.5504 50.5375 30.5987 49.8155C30.6489 49.0493 31.204 48.5485 31.9099 48.5244C32.644 48.4983 33.2332 49.0071 33.3257 49.7934C33.368 50.1393 33.3318 50.4933 33.3318 50.8432C33.3438 50.8412 33.3539 50.8412 33.3659 50.8412Z" fill="#90C23F"/>
<path d="M33.3194 13.0225C33.3194 13.3966 33.3636 13.7787 33.3093 14.1447C33.2047 14.8788 32.5954 15.3795 31.9096 15.3534C31.2459 15.3293 30.6667 14.8365 30.6104 14.1286C30.5521 13.3845 30.5501 12.6263 30.6144 11.8822C30.6768 11.1502 31.2298 10.7037 31.9277 10.6917C32.6235 10.6796 33.1766 11.11 33.2993 11.8259C33.3676 12.2161 33.3475 12.6223 33.3656 13.0225C33.3495 13.0225 33.3354 13.0225 33.3194 13.0225Z" fill="#90C23F"/>
<path d="M13.0678 33.3484C12.6214 33.3263 12.2413 33.3444 11.8732 33.282C11.1553 33.1614 10.7128 32.6184 10.7149 31.9266C10.7169 31.2307 11.1553 30.6616 11.8833 30.5952C12.6515 30.5268 13.4339 30.5288 14.2021 30.5972C14.908 30.6616 15.4088 31.275 15.3726 31.9346C15.3344 32.6325 14.9744 33.1252 14.2645 33.2599C13.8522 33.3424 13.4198 33.3263 13.0678 33.3484Z" fill="#90C23F"/>
<path d="M46.2082 16.4155C46.4937 16.6448 47.0206 16.8741 47.1896 17.2582C47.3565 17.6443 47.3283 18.2959 47.0971 18.6338C46.6526 19.2834 46.0453 19.8425 45.4258 20.3452C44.911 20.7635 44.2896 20.7072 43.7667 20.2708C43.2619 19.8505 43.0628 19.1949 43.4188 18.7243C44.01 17.9399 44.7903 17.2964 45.5103 16.6146C45.6209 16.51 45.8381 16.5161 46.2082 16.4155Z" fill="#90C23F"/>
<path d="M17.7888 16.3491C18.2212 16.5603 18.553 16.6468 18.7843 16.8499C19.3092 17.3124 19.81 17.8092 20.2725 18.3321C20.7874 18.9133 20.7331 19.7197 20.2021 20.2265C19.6933 20.7112 18.9231 20.7494 18.364 20.2507C17.823 19.77 17.3082 19.2532 16.8275 18.7102C16.4454 18.2798 16.3549 17.7127 16.6968 17.2501C16.9703 16.8821 17.4208 16.6448 17.7888 16.3491Z" fill="#90C23F"/>
<path d="M50.7718 41.1555C52.5175 41.5517 53.9112 42.4105 54.8202 43.959C55.3511 44.866 55.2224 45.7026 54.4904 46.135C53.7684 46.5614 53.0424 46.304 52.4853 45.4211C51.3852 43.6775 48.5033 43.1948 46.8844 44.4839C45.6616 45.4573 45.8225 46.9656 47.2986 47.5046C48.1493 47.8143 49.1187 47.7902 50.0237 47.9671C51.0031 48.1582 52.0288 48.2728 52.9318 48.661C54.6633 49.4091 55.8177 50.7525 55.8257 52.7093C55.8338 54.7848 54.8041 56.3434 52.9478 57.3087C52.5517 57.5139 52.1132 57.6868 51.6748 57.7532C51.0936 57.8417 50.6914 57.9483 50.5365 58.6542C50.4018 59.2716 49.8166 59.531 49.169 59.4626C48.5194 59.3943 48.0508 59.0242 48.0045 58.3807C47.9643 57.8055 47.6606 57.6486 47.2001 57.4897C45.6536 56.9568 44.4409 55.9653 43.5198 54.6239C42.9828 53.8416 43.1015 53.0392 43.7873 52.5706C44.4268 52.1342 45.2272 52.295 45.7541 53.0271C47.0714 54.8612 48.8452 55.5188 51.0232 55.0643C51.4938 54.9658 51.9845 54.7184 52.3465 54.4047C53.4707 53.4293 53.33 51.9652 52.0026 51.2995C51.3289 50.9617 50.5305 50.8491 49.7743 50.7143C48.9618 50.5695 48.1172 50.5936 47.3147 50.4147C44.9577 49.8898 43.4232 48.2246 43.3348 46.1934C43.2422 44.0294 44.6661 42.1068 46.9487 41.3888C47.5158 41.2098 47.9683 41.0992 48.079 40.3611C48.1614 39.8161 48.6923 39.5346 49.2836 39.5265C49.905 39.5185 50.3435 39.8061 50.5747 40.3772C50.6693 40.5964 50.6974 40.8519 50.7718 41.1555Z" fill="#90C23F"/>
</svg>

<svg xmlns="http://www.w3.org/2000/svg" width="65" height="64" fill="none"><path fill="#90C23F" d="M31.966 63.917C16.303 63.811 3.23 52.767.47 37.258-1.931 23.776 5.051 9.764 17.253 3.588 33.412-4.59 52.477 1.654 60.604 17.835c2.922 5.82 3.845 12.008 2.989 18.458-.135 1.01-.773 1.549-1.583 1.42-.823-.131-1.265-.835-1.142-1.82 1.576-12.799-4.763-24.618-16.226-30.251-14.919-7.329-33.4-.268-39.66 15.153-6.026 14.854.703 31.47 15.388 37.912 4.943 2.168 10.116 2.861 15.471 2.145 1.044-.138 1.76.282 1.895 1.129.13.832-.423 1.43-1.49 1.605-.15.024-.298.058-.447.068-1.279.09-2.556.177-3.833.263Z"/><path fill="#90C23F" d="M31.368 5.117c13.98.016 25.35 9.908 27.156 23.13.153 1.116.187 2.252.233 3.38.043 1.016-.484 1.653-1.313 1.681-.837.028-1.414-.631-1.432-1.673-.09-5.519-1.78-10.508-5.31-14.737C44.69 9.692 36.92 6.57 27.683 8.324c-10.265 1.949-16.75 8.334-19.206 18.486-2.937 12.154 4.75 24.876 16.839 28.254 2.115.592 4.267.91 6.467.936 1.16.014 1.842.945 1.436 1.902-.271.64-.794.849-1.458.847-4.14-.022-8.119-.863-11.753-2.83C9.743 50.364 4.693 41.691 5.226 30.02c.48-10.503 7.948-20.046 17.947-23.428 2.856-.97 5.78-1.49 8.195-1.474Z"/><path fill="#90C23F" d="M35.012 49.528c-.016-8.038 6.455-14.532 14.49-14.538a14.482 14.482 0 0 1 14.522 14.506C64.022 57.498 57.572 63.972 49.572 64c-8.034.026-14.544-6.444-14.56-14.472Zm14.524-11.797c-6.48-.006-11.767 5.253-11.781 11.72-.014 6.48 5.243 11.782 11.703 11.804 6.508.022 11.823-5.267 11.82-11.763 0-6.476-5.27-11.755-11.742-11.761ZM33.347 24.091c0 1.257-.028 2.514.023 3.77.01.275.229.647.464.796 1.623 1.03 2.305 2.914 1.627 4.647a3.729 3.729 0 0 1-4.342 2.277c-.498-.115-.774-.006-1.104.33-1.691 1.72-3.405 3.416-5.112 5.122-.159.159-.316.328-.493.466-.583.46-1.351.42-1.846-.08a1.356 1.356 0 0 1-.062-1.848c.424-.495.907-.94 1.37-1.402 1.4-1.406 2.8-2.813 4.215-4.207.29-.286.424-.521.29-.971-.508-1.708.15-3.381 1.678-4.278.415-.243.531-.503.527-.95-.018-2.312-.008-4.623-.008-6.936 0-.225-.01-.452.008-.677.067-.871.585-1.412 1.354-1.424.798-.012 1.383.55 1.406 1.448.032 1.305.008 2.612.008 3.92-.005-.003-.003-.003-.003-.003Zm-1.425 8.827c.57.018 1.025-.404 1.015-.973-.01-.591-.33-.937-.915-.998-.557-.058-1.031.376-1.06.933a.978.978 0 0 0 .96 1.038ZM20.862 44.499c-.191.436-.252.754-.437.961a19.443 19.443 0 0 1-1.637 1.645c-.52.459-1.29.396-1.78-.058-.506-.473-.603-1.287-.134-1.832.503-.586 1.021-1.197 1.653-1.617.364-.242 1.024-.286 1.44-.129.38.14.61.678.895 1.03ZM50.935 30.517c.388.028.792.018 1.182.093.676.128 1.032.583 1.08 1.259.048.66-.358 1.29-1.028 1.363-.86.093-1.747.093-2.606-.006-.672-.078-.998-.63-1.016-1.301-.018-.654.43-1.2 1.105-1.317.416-.075.846-.063 1.283-.09ZM33.366 50.841c-.02.398 0 .805-.066 1.197-.121.71-.686 1.158-1.368 1.146-.682-.012-1.249-.476-1.315-1.197a13.73 13.73 0 0 1-.018-2.172c.05-.766.605-1.267 1.31-1.29.735-.027 1.324.482 1.417 1.268.042.346.006.7.006 1.05.012-.002.022-.002.034-.002ZM33.32 13.023c0 .374.044.756-.01 1.122-.105.734-.715 1.235-1.4 1.208-.664-.024-1.243-.517-1.3-1.224-.058-.745-.06-1.503.004-2.247.063-.732.616-1.178 1.314-1.19.695-.012 1.249.418 1.371 1.134.069.39.048.796.067 1.197h-.047ZM13.068 33.348c-.447-.022-.827-.004-1.195-.066-.718-.12-1.16-.664-1.158-1.355.002-.696.44-1.265 1.168-1.332.769-.068 1.55-.066 2.32.002a1.286 1.286 0 0 1 1.17 1.338c-.039.698-.399 1.19-1.108 1.325-.413.082-.845.066-1.197.088ZM46.208 16.416c.286.229.813.458.982.842.166.386.138 1.038-.093 1.376-.444.65-1.052 1.209-1.671 1.711-.515.419-1.136.362-1.66-.074-.504-.42-.703-1.076-.347-1.547.591-.784 1.371-1.428 2.091-2.11.11-.104.328-.098.698-.198ZM17.789 16.35c.432.21.764.297.995.5.525.462 1.026.96 1.489 1.482a1.34 1.34 0 0 1-.07 1.895 1.329 1.329 0 0 1-1.839.024 18.22 18.22 0 0 1-1.537-1.54c-.382-.431-.472-.998-.13-1.46.273-.369.724-.606 1.092-.902Z"/><path fill="#90C23F" d="M50.772 41.156c1.745.396 3.14 1.255 4.048 2.803.531.907.402 1.744-.33 2.176-.722.426-1.448.169-2.005-.714-1.1-1.743-3.982-2.226-5.6-.937-1.223.973-1.063 2.482.414 3.02.85.31 1.82.286 2.725.463.98.191 2.005.306 2.908.694 1.731.748 2.886 2.091 2.894 4.048.008 2.076-1.022 3.634-2.878 4.6-.396.205-.835.378-1.273.444-.581.089-.984.195-1.139.901-.134.618-.72.877-1.367.809-.65-.069-1.118-.439-1.164-1.082-.04-.575-.344-.732-.805-.891-1.546-.533-2.76-1.525-3.68-2.866-.537-.782-.419-1.585.267-2.053.64-.437 1.44-.276 1.967.456 1.317 1.834 3.091 2.492 5.27 2.037.47-.098.96-.346 1.322-.66 1.125-.975.984-2.439-.343-3.105-.674-.337-1.472-.45-2.229-.585-.812-.145-1.657-.12-2.46-.3-2.356-.524-3.89-2.19-3.98-4.22-.092-2.165 1.332-4.087 3.615-4.805.567-.18 1.02-.29 1.13-1.028.082-.545.613-.826 1.205-.834.621-.008 1.06.28 1.29.85.095.22.123.475.198.779Z"/></svg>
